icons/svgs/file-pen-outline.svg

<svg width="24" height="24" viewBox="0 0 24 24" fill="none" xmlns="http://www.w3.org/2000/svg">
<path d="M3.75 20.125H11.4844L11.2891 20.9453C11.2109 21.2969 11.2109 21.6875 11.3281 22H3.75C2.34375 22 1.25 20.9062 1.25 19.5V4.5C1.25 3.13281 2.34375 2 3.75 2H10.1953C10.8594 2 11.4844 2.27344 11.9531 2.74219L15.5078 6.29688C15.9766 6.76562 16.25 7.39062 16.25 8.05469V13.1719L14.375 15.0469V8.25H11.25C10.5469 8.25 10 7.70312 10 7V3.875H3.75C3.39844 3.875 3.125 4.1875 3.125 4.5V19.5C3.125 19.8516 3.39844 20.125 3.75 20.125ZM22.6953 11.2188L23.2812 11.8047C23.8672 12.3906 23.8672 13.3672 23.2812 13.9922L22.1094 15.1641L19.3359 12.3906L20.5078 11.2188C21.0938 10.6328 22.1094 10.6328 22.6953 11.2188ZM13.3984 18.2891L18.4766 13.25L21.25 16.0234L16.1719 21.0625C16.0156 21.2188 15.8203 21.3359 15.625 21.4141L13.2422 22C13.0469 22.0391 12.8125 22 12.6562 21.8438C12.5 21.6875 12.4609 21.4531 12.5 21.2188L13.0859 18.875C13.125 18.6797 13.2422 18.4453 13.3984 18.2891Z" fill="black"/>
</svg>

<svg xmlns="http://www.w3.org/2000/svg" width="24" height="24" fill="currentColor" class="icon-file-pen-outline" viewBox="0 0 24 24">
  <mask id="a" width="23" height="21" x="1" y="2" maskUnits="userSpaceOnUse" style="mask-type:alpha">
    <path d="M3.75 20.125h7.734l-.195.82c-.078.352-.078.742.04 1.055H3.75a2.47 2.47 0 0 1-2.5-2.5v-15c0-1.367 1.094-2.5 2.5-2.5h6.445c.664 0 1.29.273 1.758.742l3.555 3.555c.469.469.742 1.094.742 1.758v5.117l-1.875 1.875V8.25H11.25C10.547 8.25 10 7.703 10 7V3.875H3.75a.64.64 0 0 0-.625.625v15c0 .352.273.625.625.625m18.945-8.906.586.586c.586.586.586 1.562 0 2.187l-1.172 1.172-2.773-2.773 1.172-1.172c.586-.586 1.601-.586 2.187 0m-9.297 7.07 5.079-5.039 2.773 2.773-5.078 5.04a1.6 1.6 0 0 1-.547.351L13.242 22c-.195.04-.43 0-.586-.156-.156-.157-.195-.39-.156-.625l.586-2.344a1.23 1.23 0 0 1 .312-.586"/>
  </mask>
  <g mask="url(#a)">
    <path d="M0 0h24v24H0z"/>
  </g>
</svg>
